icons/merge-units-32.svg

<svg xmlns="http://www.w3.org/2000/svg" viewBox="0 0 32 32"><path d="M30 5v23H18v-2h1v1h10V6H19v1h-1V5h12zM3 5v23h12v-2h-1v1H4V6h10v1h1V5H3zm11 20h1v-2h-1zm0-3h1v-2h-1zm0-3h1v-2h-1zm0-3h1v-2h-1zm0-3h1v-2h-1zm0-3h1V8h-1zm5 13h-1v2h1zm0-3h-1v2h1zm0-3h-1v2h1zm0-3h-1v2h1zm0-3h-1v2h1zm0-3h-1v2h1zm-7 8.5L9 14v2H6v1h3v2zm9 0l3 2.5v-2h3v-1h-3v-2z"/><path fill="none" d="M0 0h32v32H0z"/></svg>

<svg id="icons" xmlns="http://www.w3.org/2000/svg" viewBox="0 0 32 32"><defs><style>.cls-1{fill:none;}</style></defs><path d="M30,5V28H18V26h1v1H29V6H19V7H18V5H30ZM3,5V28H15V26H14v1H4V6H14V7h1V5H3ZM14,25h1V23H14Zm0-3h1V20H14Zm0-3h1V17H14Zm0-3h1V14H14Zm0-3h1V11H14Zm0-3h1V8H14Zm5,13H18v2h1Zm0-3H18v2h1Zm0-3H18v2h1Zm0-3H18v2h1Zm0-3H18v2h1Zm0-3H18v2h1Zm-7,8.49994L9,14v2H6v1H9v2ZM21,16.5,24,19V17h3V16H24V14Z"/><rect class="cls-1" width="32" height="32"/></svg>
